gama.ui.shared/icons_svg/light/status/status.memory.svg

<svg height="24.75" viewBox="270.702 -3463.452 24.75 24.75" width="24.75" xmlns="http://www.w3.org/2000/svg"><path d="m290.18805-3456.4107v11.1111c0 1.2273-.99492 2.2222-2.22222 2.2222h-8c-1.2273 0-2.22223-.9949-2.22223-2.2222v-11.1111h-.44444c-.24546 0-.44444-.199-.44444-.4443 0-.2456.19898-.4446.44444-.4446h4v-.4444c0-.7364.59696-1.3334 1.33334-1.3334h2.66666c.73638 0 1.33334.597 1.33334 1.3334v.4444h4c.24546 0 .44444.199.44444.4446 0 .2453-.19898.4443-.44444.4443zm-11.55555 0v11.1111c0 .7364.59695 1.3333 1.33333 1.3333h8c.73637 0 1.33333-.5969 1.33333-1.3333v-11.1111zm7.1111-.8889v-.4444c0-.2455-.19898-.4445-.44444-.4445h-2.66666c-.24546 0-.44445.199-.44445.4445v.4444zm0 4c0-.2454.199-.4444.44445-.4444s.44445.199.44445.4444v6.2222c0 .2454-.199.4444-.44445.4444s-.44445-.199-.44445-.4444zm-4.44444 0c0-.2454.19899-.4444.44444-.4444.24547 0 .44445.199.44445.4444v6.2222c0 .2454-.19898.4444-.44445.4444-.24545 0-.44444-.199-.44444-.4444z" fill="#d2673a"/></svg>

<?xml version="1.0" encoding="UTF-8" standalone="no"?>
<!DOCTYPE svg PUBLIC "-//W3C//DTD SVG 1.1//EN" "http://www.w3.org/Graphics/SVG/1.1/DTD/svg11.dtd">
<svg xmlns:dc="http://purl.org/dc/elements/1.1/" xmlns="http://www.w3.org/2000/svg" xmlns:xl="http://www.w3.org/1999/xlink" version="1.1" viewBox="270.70194 -3463.4524 24.75 24.75" width="24.75" height="24.75">
  <defs/>
  <g id="SOURCES" stroke="none" stroke-opacity="1" fill="none" stroke-dasharray="none" fill-opacity="1">
    <title>SOURCES</title>
    <g id="SOURCES_Calque_1">
      <title>Calque 1</title>
      <g id="Graphic_6316">
        <path d="M 290.18805 -3456.4107 L 290.18805 -3445.2996 C 290.18805 -3444.0723 289.19313 -3443.0774 287.96583 -3443.0774 L 279.96583 -3443.0774 C 278.73853 -3443.0774 277.7436 -3444.0723 277.7436 -3445.2996 L 277.7436 -3456.4107 L 277.29916 -3456.4107 C 277.0537 -3456.4107 276.85472 -3456.6097 276.85472 -3456.855 C 276.85472 -3457.1006 277.0537 -3457.2996 277.29916 -3457.2996 L 281.29916 -3457.2996 L 281.29916 -3457.744 C 281.29916 -3458.4804 281.89612 -3459.0774 282.6325 -3459.0774 L 285.29916 -3459.0774 C 286.03554 -3459.0774 286.6325 -3458.4804 286.6325 -3457.744 L 286.6325 -3457.2996 L 290.6325 -3457.2996 C 290.87796 -3457.2996 291.07694 -3457.1006 291.07694 -3456.855 C 291.07694 -3456.6097 290.87796 -3456.4107 290.6325 -3456.4107 Z M 278.6325 -3456.4107 L 278.6325 -3445.2996 C 278.6325 -3444.5632 279.22945 -3443.9663 279.96583 -3443.9663 L 287.96583 -3443.9663 C 288.7022 -3443.9663 289.29916 -3444.5632 289.29916 -3445.2996 L 289.29916 -3456.4107 Z M 285.7436 -3457.2996 L 285.7436 -3457.744 C 285.7436 -3457.9895 285.54462 -3458.1885 285.29916 -3458.1885 L 282.6325 -3458.1885 C 282.38704 -3458.1885 282.18805 -3457.9895 282.18805 -3457.744 L 282.18805 -3457.2996 Z M 285.7436 -3453.2996 C 285.7436 -3453.545 285.9426 -3453.744 286.18805 -3453.744 C 286.4335 -3453.744 286.6325 -3453.545 286.6325 -3453.2996 L 286.6325 -3447.0774 C 286.6325 -3446.832 286.4335 -3446.633 286.18805 -3446.633 C 285.9426 -3446.633 285.7436 -3446.832 285.7436 -3447.0774 Z M 281.29916 -3453.2996 C 281.29916 -3453.545 281.49815 -3453.744 281.7436 -3453.744 C 281.98907 -3453.744 282.18805 -3453.545 282.18805 -3453.2996 L 282.18805 -3447.0774 C 282.18805 -3446.832 281.98907 -3446.633 281.7436 -3446.633 C 281.49815 -3446.633 281.29916 -3446.832 281.29916 -3447.0774 Z" fill="#d2673a"/>
      </g>
      <g id="Graphic_6320"/>
    </g>
  </g>
</svg>
